www/assets/icons/open_with.svg

<svg xmlns="http://www.w3.org/2000/svg" width="24" height="24" viewBox="0 0 24 24" fill='currentColor'><path d="M10 9h4V6h3l-5-5-5 5h3zm-1 1H6V7l-5 5 5 5v-3h3zm14 2-5-5v3h-3v4h3v3zm-9 3h-4v3H7l5 5 5-5h-3z"/></svg>

<svg width="24" height="24" viewBox="0 0 24 24" xmlns="http://www.w3.org/2000/svg" fill='currentColor'><path d="M10 9H14V6H17L12 1L7 6H10V9ZM9 10H6V7L1 12L6 17V14H9V10ZM23 12L18 7V10H15V14H18V17L23 12ZM14 15H10V18H7L12 23L17 18H14V15Z"/></svg>
